communes/3582.svg

<?xml version="1.0" encoding="UTF-8"?>
<!DOCTYPE svg  PUBLIC '-//W3C//DTD SVG 1.1//EN'  'http://www.w3.org/Graphics/SVG/1.1/DTD/svg11.dtd'>
<svg width="438" height="480" viewBox="21 15 438 480" xmlns="http://www.w3.org/2000/svg">
<metadata>
<rdf:RDF xmlns:dc="http://purl.org/dc/elements/1.1/" xmlns:rdf="http://www.w3.org/1999/02/22-rdf-syntax-ns#">
<rdf:Description dc:date="2006-10-29" dc:format="image/svg+xml" dc:language="de" dc:title="Wappen Schluein (CH-GR)">
<dc:creator rdf:resource="http://de.wikipedia.org/wiki/Benutzer:Bernina"/>
</rdf:Description>
</rdf:RDF>
</metadata>
<title>Wappen Schluein (CH-GR)</title>
<defs>
<clipPath id="a">
<path d="m360 4140a3240 3240 0 0 0 6480 0v-3870h-6480v3870z"/>
</clipPath>
<style type="text/css"><![CDATA[
  .Rand2 { stroke: #202020; stroke-width:30; }
  .Rand3 { stroke: #202020; stroke-width:45; }
  .Rand6 { stroke: #202020; stroke-width:90; }
  .Blau { fill: #0000ff; }
  .Gold { fill: #ffef00; }
  ]]></style>
</defs>
<g transform="scale(.066667)" fill="none" fill-rule="evenodd" stroke-miterlimit="10" stroke-width="10">
<g clip-path="url(#a)">
<path class="Blau" d="m-225-225v7650h3825v-7650h-3825z"/>
<path class="Gold" d="m3600-225v7650h3825v-7650h-3825z"/>
<path class="Gold Rand2" d="m2160 1440h-180v-450h-180v1350h-180v-1350h-450v270h270v270h-270v270h270v270h-270v270h270v270h-270v270h360l90-270h180v270h180v-990h180v-450z"/>
<path class="Gold Rand2" d="m2160 990v3510h450v-3510h-450z"/>
<path class="Gold Rand2" d="m1710 5264a180 224 0 0 0-360 0 180 224 0 0 0 360 0z"/>
<path class="Gold Rand2" d="m3420 5264a180 224 0 0 0-360 0 180 224 0 0 0 360 0z"/>
<path class="Gold Rand2" d="m2386 6300a180 224-270 0 0 0-360 180 224-270 0 0 0 360z"/>
<path class="Gold Rand2" d="m2610 4500h-450l-540 540v450l540 540h450l540-540v-450l-540-540z"/>
<path class="Gold Rand2" d="m2160 3870a90 90 0 0 0-90 90v90a90 90 0 0 0 90 90h450a90 90 0 0 0 90-90v-90a90 90 0 0 0-90-90h-450z"/>
<path class="Gold Rand2" d="m2160 4230a90 90 0 0 0-90 90v90a90 90 0 0 0 90 90h450a90 90 0 0 0 90-90v-90a90 90 0 0 0-90-90h-450z"/>
<path class="Blau Rand2" d="m2250 4680-450 450h450v-450z"/>
<path class="Blau Rand2" d="m2520 4680v450h450l-450-450z"/>
<path class="Blau Rand2" d="m2250 5850v-450h-450l450 450z"/>
<path class="Blau Rand2" d="m2520 5850 450-450h-450v450z"/>
<path class="Blau Rand2" d="m4950 2070v3960l180 360h90l180-360v-3960h-450z"/>
<path class="Blau Rand2" d="m4500 2114a90 134 0 0 0-180 0 90 134 0 0 0 180 0z"/>
<path class="Blau Rand2" d="m6030 2114a90 134 0 0 0-180 0 90 134 0 0 0 180 0z"/>
<path class="Blau Rand2" d="m5310 868a136 136 0 0 0-272 0 136 136 0 0 0 272 0z"/>
<path class="Blau Rand2" d="m5040 2070h270l90-540-90-540h-270l-90 540 90 540z"/>
<path class="Blau Rand2" d="m4500 2250 450-30h450l450 30v-270l-450 30h-450l-450-30v270z"/>
<path class="Rand2" d="m5176 5940v-3690"/>
<path class="Rand3" d="m3600-225v7650"/>
</g>
<path class="Rand6" d="m360 4140a3240 3240 0 0 0 6480 0v-3870h-6480v3870z"/>
</g>
</svg>

<?xml version="1.0" encoding="iso-8859-1"?>
<!DOCTYPE svg PUBLIC "-//W3C//DTD SVG 1.1//EN" "http://www.w3.org/Graphics/SVG/1.1/DTD/svg11.dtd">
<!-- Auto-generated by fig2svg tool
     Date: Sun Oct 29 16:17:18 2006 -->
<svg xmlns="http://www.w3.org/2000/svg"
     width="438" height="480" viewBox="21 15 438 480">
<metadata>
<rdf:RDF xmlns:rdf="http://www.w3.org/1999/02/22-rdf-syntax-ns#"
         xmlns:dc="http://purl.org/dc/elements/1.1/">
<rdf:Description
 dc:title="Wappen Schluein (CH-GR)"
 dc:date="2006-10-29"
 dc:format="image/svg+xml"
 dc:language="de">
<dc:creator rdf:resource="http://de.wikipedia.org/wiki/Benutzer:Bernina" />
</rdf:Description>
</rdf:RDF>
</metadata>
<title>
Wappen Schluein (CH-GR)
</title>
<defs>
<clipPath id="clippath">
<path d="M360,4140 A3240,3240 0.0 0 0 6840,4140 L6840,270 L360,270 L360,4140 Z" />
</clipPath>
<style type="text/css">
  <![CDATA[
  .Rand2 { stroke: #202020; stroke-width:30; }
  .Rand3 { stroke: #202020; stroke-width:45; }
  .Rand6 { stroke: #202020; stroke-width:90; }
  .Blau { fill: #0000ff; }
  .Gold { fill: #ffef00; }
  ]]>
</style>
</defs>
<g stroke="none" stroke-miterlimit="10" stroke-width="10"
   stroke-linecap="butt" stroke-linejoin="miter"
   fill="none" fill-rule="evenodd" transform="scale(0.066667)">
<g clip-path="url(#clippath)">
<path id="feldv-1" class="Blau"
      d="M-225,-225 L-225,7425 L3600,7425 L3600,-225 L-225,-225 Z" />
<path id="feldh-1" class="Gold"
      d="M3600,-225 L3600,7425 L7425,7425 L7425,-225 L3600,-225 Z" />
<path id="bart-1" class="Gold Rand2"
      d="M2160,1440 L1980,1440 L1980,990 L1800,990 L1800,2340 L1620,2340
         L1620,990 L1170,990 L1170,1260 L1440,1260 L1440,1530 L1170,1530
         L1170,1800 L1440,1800 L1440,2070 L1170,2070 L1170,2340 L1440,2340
         L1440,2610 L1170,2610 L1170,2880 L1530,2880 L1620,2610 L1800,2610
         L1800,2880 L1980,2880 L1980,1890 L2160,1890 L2160,1440 Z" />
<path id="stiel-1" class="Gold Rand2"
      d="M2160,990 L2160,4500 L2610,4500 L2610,990 L2160,990 Z" />
<path id="kugel-1" class="Gold Rand2"
      d="M1710,5264 A180,224 0.0 0 0 1350,5264 A180,224 0.0 0 0 1710,5264 Z" />
<path id="kugel-2" class="Gold Rand2"
      d="M3420,5264 A180,224 0.0 0 0 3060,5264 A180,224 0.0 0 0 3420,5264 Z" />
<path id="kugel-3" class="Gold Rand2"
      d="M2386.00,6300 A180,224 -270.0 0 0 2386.00,5940 A180,224 -270.0 0 0 2386.00,6300 Z" />
<path id="griff-1" class="Gold Rand2"
      d="M2610,4500 L2160,4500 L1620,5040 L1620,5490 L2160,6030 L2610,6030
         L3150,5490 L3150,5040 L2610,4500 Z" />
<path id="bund-1" class="Gold Rand2"
      d="M2160,3870 A90,90 0.0 0 0 2070,3960 L2070,4050 A90,90 0.0 0 0 2160,4140
         L2610,4140 A90,90 0.0 0 0 2700,4050 L2700,3960
         A90,90 0.0 0 0 2610,3870 L2160,3870 Z" />
<path id="bund-2" class="Gold Rand2"
      d="M2160,4230 A90,90 0.0 0 0 2070,4320 L2070,4410 A90,90 0.0 0 0 2160,4500
         L2610,4500 A90,90 0.0 0 0 2700,4410 L2700,4320
         A90,90 0.0 0 0 2610,4230 L2160,4230 Z" />
<path id="loch-1" class="Blau Rand2"
      d="M2250,4680 L1800,5130 L2250,5130 L2250,4680 Z" />
<path id="loch-2" class="Blau Rand2"
      d="M2520,4680 L2520,5130 L2970,5130 L2520,4680 Z" />
<path id="loch-3" class="Blau Rand2"
      d="M2250,5850 L2250,5400 L1800,5400 L2250,5850 Z" />
<path id="loch-4" class="Blau Rand2"
      d="M2520,5850 L2970,5400 L2520,5400 L2520,5850 Z" />
<path id="schwert-1" class="Blau Rand2"
      d="M4950,2070 L4950,6030 L5130,6390 L5220,6390 L5400,6030 L5400,2070
         L4950,2070 Z" />
<path id="skugel-1" class="Blau Rand2"
      d="M4500,2114 A90,134 0.0 0 0 4320,2114 A90,134 0.0 0 0 4500,2114 Z" />
<path id="skugel-2" class="Blau Rand2"
      d="M6030,2114 A90,134 0.0 0 0 5850,2114 A90,134 0.0 0 0 6030,2114 Z" />
<path id="skugel-3" class="Blau Rand2"
      d="M5310,868 A136,136 0.0 0 0 5038,868 A136,136 0.0 0 0 5310,868 Z" />
<path id="sgriffa-1" class="Blau Rand2"
      d="M5040,2070 L5310,2070 L5400,1530 L5310,990 L5040,990 L4950,1530
         L5040,2070 Z" />
<path id="sgriffb-1" class="Blau Rand2"
      d="M4500,2250 L4950,2220 L5400,2220 L5850,2250 L5850,1980 L5400,2010
         L4950,2010 L4500,1980 L4500,2250 Z" />
<path id="schwert-linie-1" class="Rand2" d="M5176,5940 L5176,2250" />
<path id="linie-1" class="Rand3" d="M3600,-225 L3600,7425" />
</g>
<path id="clip-boundary" class="Rand6"
      d="M360,4140 A3240,3240 0.0 0 0 6840,4140 L6840,270 L360,270 L360,4140 Z" />
</g>
</svg>
